svg/waves_arrow_up.svg

<svg xmlns="http://www.w3.org/2000/svg" viewBox="0 0 24 24"><path d="M20 14h2v2h-2c-1.38 0-2.74-.35-4-1-2.5 1.3-5.5 1.3-8 0-1.26.65-2.63 1-4 1H2v-2h2c1.39 0 2.78-.47 4-1.33 2.44 1.71 5.56 1.71 8 0 1.22.86 2.61 1.33 4 1.33m0 6h2v2h-2c-1.38 0-2.74-.35-4-1-2.5 1.3-5.5 1.3-8 0-1.26.65-2.63 1-4 1H2v-2h2c1.39 0 2.78-.47 4-1.33 2.44 1.71 5.56 1.71 8 0 1.22.86 2.61 1.33 4 1.33M7 2 3 6h3v5h2V6h3m6-4-4 4h3v5h2V6h3"/></svg>

<svg xmlns="http://www.w3.org/2000/svg" id="mdi-waves-arrow-up" viewBox="0 0 24 24"><path d="M20 14H22V16H20C18.62 16 17.26 15.65 16 15C13.5 16.3 10.5 16.3 8 15C6.74 15.65 5.37 16 4 16H2V14H4C5.39 14 6.78 13.53 8 12.67C10.44 14.38 13.56 14.38 16 12.67C17.22 13.53 18.61 14 20 14M20 20H22V22H20C18.62 22 17.26 21.65 16 21C13.5 22.3 10.5 22.3 8 21C6.74 21.65 5.37 22 4 22H2V20H4C5.39 20 6.78 19.53 8 18.67C10.44 20.38 13.56 20.38 16 18.67C17.22 19.53 18.61 20 20 20M7 2L3 6H6V11H8V6H11M17 2L13 6H16V11H18V6H21" /></svg>
